svgs/thin/trash-can-xmark.svg

<svg xmlns="http://www.w3.org/2000/svg" viewBox="0 0 448 512"><!--! Font Awesome Pro 6.4.0 by @fontawesome - https://fontawesome.com License - https://fontawesome.com/license (Commercial License) Copyright 2023 Fonticons, Inc. --><path d="M157.4 27.3L134.4 64H313.6l-23-36.7c-4.4-7-12.1-11.3-20.4-11.3H177.7c-8.3 0-16 4.3-20.4 11.3zM115.6 64l28.2-45.2C151.1 7.1 163.9 0 177.7 0h92.5c13.8 0 26.6 7.1 33.9 18.8L332.4 64H440c4.4 0 8 3.6 8 8s-3.6 8-8 8H8c-4.4 0-8-3.6-8-8s3.6-8 8-8H115.6zM40 112c4.4 0 8 3.6 8 8V440c0 30.9 25.1 56 56 56H344c30.9 0 56-25.1 56-56V120c0-4.4 3.6-8 8-8s8 3.6 8 8V440c0 39.8-32.2 72-72 72H104c-39.8 0-72-32.2-72-72V120c0-4.4 3.6-8 8-8zm106.3 98.3c3.1-3.1 8.2-3.1 11.3 0L224 276.7l66.3-66.3c3.1-3.1 8.2-3.1 11.3 0s3.1 8.2 0 11.3L235.3 288l66.3 66.3c3.1 3.1 3.1 8.2 0 11.3s-8.2 3.1-11.3 0L224 299.3l-66.3 66.3c-3.1 3.1-8.2 3.1-11.3 0s-3.1-8.2 0-11.3L212.7 288l-66.3-66.3c-3.1-3.1-3.1-8.2 0-11.3z"/></svg>

<svg xmlns="http://www.w3.org/2000/svg" viewBox="0 0 448 512"><!--! Font Awesome Pro 6.3.0 by @fontawesome - https://fontawesome.com License - https://fontawesome.com/license (Commercial License) Copyright 2023 Fonticons, Inc. --><path d="M115.6 64L143.8 18.8C151.1 7.105 163.9 0 177.7 0H270.3C284.1 0 296.9 7.105 304.2 18.8L332.4 64H440C444.4 64 448 67.58 448 72C448 76.42 444.4 80 440 80H8C3.582 80 0 76.42 0 72C0 67.58 3.582 64 8 64H115.6zM134.4 64H313.6L290.6 27.28C286.2 20.26 278.5 16 270.3 16H177.7C169.5 16 161.8 20.26 157.4 27.28L134.4 64zM40 112C44.42 112 48 115.6 48 120V440C48 470.9 73.07 496 104 496H344C374.9 496 400 470.9 400 440V120C400 115.6 403.6 112 408 112C412.4 112 416 115.6 416 120V440C416 479.8 383.8 512 344 512H104C64.24 512 32 479.8 32 440V120C32 115.6 35.58 112 40 112zM146.3 210.3C149.5 207.2 154.5 207.2 157.7 210.3L224 276.7L290.3 210.3C293.5 207.2 298.5 207.2 301.7 210.3C304.8 213.5 304.8 218.5 301.7 221.7L235.3 288L301.7 354.3C304.8 357.5 304.8 362.5 301.7 365.7C298.5 368.8 293.5 368.8 290.3 365.7L224 299.3L157.7 365.7C154.5 368.8 149.5 368.8 146.3 365.7C143.2 362.5 143.2 357.5 146.3 354.3L212.7 288L146.3 221.7C143.2 218.5 143.2 213.5 146.3 210.3V210.3z"/></svg>
